svgs/regular/battery-empty.svg

<svg xmlns="http://www.w3.org/2000/svg" viewBox="0 0 576 512"><!--! Font Awesome Pro 6.3.0 by @fontawesome - https://fontawesome.com License - https://fontawesome.com/license (Commercial License) Copyright 2023 Fonticons, Inc. --><path d="M80 144c-17.7 0-32 14.3-32 32V336c0 17.7 14.3 32 32 32H464c17.7 0 32-14.3 32-32V176c0-17.7-14.3-32-32-32H80zM0 176c0-44.2 35.8-80 80-80H464c44.2 0 80 35.8 80 80v16c17.7 0 32 14.3 32 32v64c0 17.7-14.3 32-32 32v16c0 44.2-35.8 80-80 80H80c-44.2 0-80-35.8-80-80V176z"/></svg>

<svg xmlns="http://www.w3.org/2000/svg" viewBox="0 0 576 512"><!--! Font Awesome Pro 6.2.0 by @fontawesome - https://fontawesome.com License - https://fontawesome.com/license (Commercial License) Copyright 2022 Fonticons, Inc. --><path d="M464 96C508.2 96 544 131.8 544 176V192C561.7 192 576 206.3 576 224V288C576 305.7 561.7 320 544 320V336C544 380.2 508.2 416 464 416H80C35.82 416 0 380.2 0 336V176C0 131.8 35.82 96 80 96H464zM48 336C48 353.7 62.33 368 80 368H464C481.7 368 496 353.7 496 336V176C496 158.3 481.7 144 464 144H80C62.33 144 48 158.3 48 176V336z"/></svg>
